src/assets/logo.svg

<svg fill="none" height="24" viewBox="0 0 28 24" width="28" xmlns="http://www.w3.org/2000/svg" xmlns:xlink="http://www.w3.org/1999/xlink"><linearGradient id="a"><stop offset="0" stop-color="#1dc071"/><stop offset="1" stop-color="#77d9aa"/></linearGradient><linearGradient id="b" gradientUnits="userSpaceOnUse" x1="4.83591" x2="15.441" xlink:href="#a" y1="2.61345" y2="21.0019"/><linearGradient id="c" gradientUnits="userSpaceOnUse" x1="22.5435" x2="22.5205" xlink:href="#a" y1="1.92645" y2="11.2863"/><path d="m3.18595 9.23478c-1.33725-2.34342-.59854-5.30789 1.64996-6.62133 2.24849-1.31343 5.15531-.47846 6.49259 1.86496l5.87 10.28679c1.3373 2.3434.5985 5.3079-1.65 6.6213-2.2484 1.3134-5.1553.4785-6.49252-1.865z" fill="url(#b)"/><path d="m27.2349 6.6917c0 2.63177-2.1004 4.7652-4.6914 4.7652s-4.6914-2.13343-4.6914-4.7652c0-2.63178 2.1004-4.76525 4.6914-4.76525s4.6914 2.13347 4.6914 4.76525z" fill="url(#c)"/></svg>

<svg width="28" height="24" viewBox="0 0 28 24" fill="none" xmlns="http://www.w3.org/2000/svg">
<path d="M3.18595 9.23478C1.8487 6.89136 2.58741 3.92689 4.83591 2.61345C7.0844 1.30002 9.99122 2.13499 11.3285 4.47841L17.1985 14.7652C18.5358 17.1086 17.797 20.0731 15.5485 21.3865C13.3001 22.6999 10.3932 21.865 9.05598 19.5215L3.18595 9.23478Z" fill="url(#paint0_linear_2290_2172)"/>
<path d="M27.2349 6.6917C27.2349 9.32347 25.1345 11.4569 22.5435 11.4569C19.9525 11.4569 17.8521 9.32347 17.8521 6.6917C17.8521 4.05992 19.9525 1.92645 22.5435 1.92645C25.1345 1.92645 27.2349 4.05992 27.2349 6.6917Z" fill="url(#paint1_linear_2290_2172)"/>
<defs>
<linearGradient id="paint0_linear_2290_2172" x1="4.83591" y1="2.61345" x2="15.441" y2="21.0019" gradientUnits="userSpaceOnUse">
<stop stop-color="#1DC071"/>
<stop offset="1" stop-color="#77D9AA"/>
</linearGradient>
<linearGradient id="paint1_linear_2290_2172" x1="22.5435" y1="1.92645" x2="22.5205" y2="11.2863" gradientUnits="userSpaceOnUse">
<stop stop-color="#1DC071"/>
<stop offset="1" stop-color="#77D9AA"/>
</linearGradient>
</defs>
</svg>
